!!! OTL: Berkowitz476
!!! Chapter: 1
!!! Section: IV
!!! Page: 118
!!! Mode: 
!!! Encoder: DJB
**kern
*staff1
*I"Piano
=1-
*clefF4
*k[b-e-]
*B-:
*M3/4
8AA/L
8C/J
8E-\L
[8G\J
12G\L]
12F\
12E-\J
=2
*M2/4
8D\L
8F\J
4BB-/
=3
*M3/4
8D\L
8F\J
8A-\L
[8c\J
12c\L]
12B-\
12A-\J
=4
*M2/4
4G\
8r
8F\
=5
*M3/4
8En\L
8G\J
8B-\L
[8d\J
12d\L]
12c\
12B-\J
=6
*M2/4
8A\L
8c\J
8F\L
8E-\J
=7
!!linebreak:original
*M3/4
8D\L
8F\J
8A\L
8B-\J
8C\L
8A\J
=8
2BB-/
4r
==
*-
